public/img/sponsors/serverauth.svg

<svg width="100%" height="100%" viewBox="0 0 720 184" xmlns="http://www.w3.org/2000/svg">
<path d="M223.381 107.307C214.229 107.307 205.405 104.257 199.848 99.1363L205.84 89.44C209.654 93.0353 217.498 96.6305 224.035 96.6305C230.027 96.6305 232.859 94.2337 232.859 90.9653C232.859 82.2495 201.592 89.331 201.592 68.6311C201.592 59.8063 209.327 52.071 223.163 52.071C232.097 52.071 239.178 55.1216 244.408 59.2616L238.852 68.74C235.692 65.3626 229.7 62.6389 223.272 62.6389C218.26 62.6389 214.992 64.9268 214.992 67.8684C214.992 75.7126 246.151 69.1758 246.151 90.4205C246.151 100.008 237.98 107.307 223.381 107.307Z" fill="currentColor"/>
<path d="M281.075 107.307C265.06 107.307 252.967 96.5216 252.967 79.6347C252.967 64.3821 264.189 52.071 280.204 52.071C295.892 52.071 306.569 63.8374 306.569 81.051V84.1016H267.457C268.329 90.7474 273.667 96.3037 282.601 96.3037C287.068 96.3037 293.278 94.3426 296.655 91.0742L302.756 100.008C297.526 104.802 289.246 107.307 281.075 107.307ZM293.169 74.7321C292.842 69.7205 289.355 63.0747 280.204 63.0747C271.597 63.0747 267.893 69.5026 267.239 74.7321H293.169Z" fill="currentColor"/>
<path d="M330.4 106H316.563V53.3784H330.4V60.5689C334.104 55.8842 340.641 52.071 347.178 52.071V65.5805C346.197 65.3626 344.89 65.2537 343.364 65.2537C338.789 65.2537 332.688 67.8684 330.4 71.2458V106Z" fill="currentColor"/>
<path d="M384.367 106H369.441L348.305 53.3784H363.122L376.85 89.9847L390.577 53.3784H405.503L384.367 106Z" fill="currentColor"/>
<path d="M436.411 107.307C420.395 107.307 408.302 96.5216 408.302 79.6347C408.302 64.3821 419.524 52.071 435.539 52.071C451.227 52.071 461.904 63.8374 461.904 81.051V84.1016H422.792C423.664 90.7474 429.002 96.3037 437.936 96.3037C442.403 96.3037 448.613 94.3426 451.99 91.0742L458.091 100.008C452.862 104.802 444.582 107.307 436.411 107.307ZM448.504 74.7321C448.177 69.7205 444.691 63.0747 435.539 63.0747C426.932 63.0747 423.228 69.5026 422.574 74.7321H448.504Z" fill="currentColor"/>
<path d="M485.735 106H471.898V53.3784H485.735V60.5689C489.439 55.8842 495.976 52.071 502.513 52.071V65.5805C501.532 65.3626 500.225 65.2537 498.699 65.2537C494.124 65.2537 488.023 67.8684 485.735 71.2458V106Z" fill="currentColor"/>
<path d="M556.589 106H542.753V100.553C539.157 104.802 532.947 107.307 526.084 107.307C517.695 107.307 507.78 101.642 507.78 89.8758C507.78 77.5647 517.695 72.88 526.084 72.88C533.056 72.88 539.266 75.1679 542.753 79.3079V72.2263C542.753 66.8879 538.177 63.4016 531.204 63.4016C525.539 63.4016 520.309 65.4716 515.842 69.6116L510.613 60.3511C517.041 54.6858 525.321 52.071 533.601 52.071C545.585 52.071 556.589 56.8647 556.589 72.0084V106ZM531.64 97.9379C536.107 97.9379 540.465 96.4126 542.753 93.3621V86.8253C540.465 83.7747 536.107 82.2495 531.64 82.2495C526.192 82.2495 521.726 85.0821 521.726 90.2026C521.726 95.1053 526.192 97.9379 531.64 97.9379Z" fill="#3AB1F4"/>
<path d="M619.666 106H605.83V99.3542C602.234 103.385 595.915 107.307 587.309 107.307C575.76 107.307 570.313 100.988 570.313 90.7474V53.3784H584.149V85.3C584.149 92.5995 587.962 94.9963 593.845 94.9963C599.184 94.9963 603.433 92.0547 605.83 89.0042V53.3784H619.666V106Z" fill="#3AB1F4"/>
<path d="M651.054 107.307C641.358 107.307 636.128 102.296 636.128 92.9263V65.4716H627.412V53.3784H636.128V38.9974H650.073V53.3784H660.75V65.4716H650.073V89.2221C650.073 92.4905 651.816 94.9963 654.867 94.9963C656.937 94.9963 658.898 94.2337 659.661 93.471L662.602 103.93C660.532 105.782 656.828 107.307 651.054 107.307Z" fill="#3AB1F4"/>
<path d="M719.679 106H705.842V73.9695C705.842 66.67 702.029 64.3821 696.037 64.3821C690.699 64.3821 686.45 67.4326 684.053 70.5921V106H670.217V33.3321H684.053V60.2421C687.43 56.2111 693.967 52.071 702.574 52.071C714.122 52.071 719.679 58.39 719.679 68.6311V106Z" fill="#3AB1F4"/>
<path d="M221.295 146H216.463L212.719 131.344L209.007 146H204.175L198.063 124.656H203.151L206.895 140.08L210.959 124.656H214.511L218.543 140.08L222.255 124.656H227.375L221.295 146Z" fill="currentColor"/>
<path d="M244.622 146H229.518V124.656H244.622V128.656H234.062V133.168H244.398V137.168H234.062V142H244.622V146Z" fill="currentColor"/>
<path d="M259.759 146H248.175V124.656H259.407C263.471 124.656 265.551 127.248 265.551 130.096C265.551 132.784 263.887 134.576 261.871 134.992C264.143 135.344 265.967 137.552 265.967 140.24C265.967 143.44 263.823 146 259.759 146ZM258.415 133.2C259.951 133.2 260.911 132.24 260.911 130.896C260.911 129.552 259.951 128.56 258.415 128.56H252.719V133.2H258.415ZM258.575 142.064C260.303 142.064 261.327 141.136 261.327 139.6C261.327 138.256 260.367 137.104 258.575 137.104H252.719V142.064H258.575Z" fill="currentColor"/>
<path d="M276.977 146.384C272.881 146.384 269.937 145.008 267.953 142.992L270.417 139.536C271.921 141.104 274.257 142.416 277.201 142.416C279.697 142.416 280.913 141.264 280.913 140.048C280.913 136.272 268.625 138.864 268.625 130.832C268.625 127.28 271.697 124.336 276.721 124.336C280.113 124.336 282.929 125.36 285.041 127.312L282.513 130.64C280.785 129.04 278.481 128.304 276.305 128.304C274.353 128.304 273.265 129.168 273.265 130.448C273.265 133.84 285.521 131.568 285.521 139.536C285.521 143.44 282.737 146.384 276.977 146.384Z" fill="currentColor"/>
<path d="M293.125 146H288.581V124.656H293.125V146Z" fill="currentColor"/>
<path d="M306.866 146H302.29V128.656H296.05V124.656H313.074V128.656H306.866V146Z" fill="currentColor"/>
<path d="M331.091 146H315.987V124.656H331.091V128.656H320.531V133.168H330.867V137.168H320.531V142H331.091V146Z" fill="currentColor"/>
<path d="M361.135 146H355.951C355.503 145.584 354.959 145.04 354.351 144.4C352.751 145.616 350.799 146.384 348.527 146.384C344.623 146.384 341.487 144.336 341.487 140.208C341.487 136.976 343.631 135.28 346.063 134.064C345.231 132.496 344.655 130.896 344.655 129.456C344.655 126.576 347.215 124.336 350.767 124.336C353.775 124.336 356.367 126 356.367 128.848C356.367 132.112 353.743 133.488 351.119 134.704C351.759 135.568 352.431 136.368 352.975 137.008C353.583 137.776 354.191 138.48 354.767 139.184C355.663 137.808 356.335 136.304 356.719 135.056L359.983 136.56C359.215 138.256 358.223 140.08 357.007 141.712C358.287 143.088 359.631 144.496 361.135 146ZM349.103 143.184C350.191 143.184 351.247 142.768 352.175 142.096C351.215 141.04 350.319 140.016 349.807 139.376C349.103 138.512 348.367 137.552 347.663 136.56C346.543 137.36 345.807 138.352 345.807 139.824C345.807 141.904 347.343 143.184 349.103 143.184ZM348.719 129.552C348.719 130.416 349.103 131.408 349.647 132.432C351.439 131.568 352.847 130.64 352.847 129.072C352.847 127.952 352.015 127.28 350.959 127.28C349.711 127.28 348.719 128.24 348.719 129.552Z" fill="currentColor"/>
<path d="M379.29 146.384C375.194 146.384 372.25 145.008 370.266 142.992L372.73 139.536C374.234 141.104 376.57 142.416 379.514 142.416C382.01 142.416 383.226 141.264 383.226 140.048C383.226 136.272 370.938 138.864 370.938 130.832C370.938 127.28 374.01 124.336 379.034 124.336C382.426 124.336 385.242 125.36 387.354 127.312L384.826 130.64C383.098 129.04 380.794 128.304 378.618 128.304C376.666 128.304 375.578 129.168 375.578 130.448C375.578 133.84 387.834 131.568 387.834 139.536C387.834 143.44 385.05 146.384 379.29 146.384Z" fill="currentColor"/>
<path d="M405.997 146H390.893V124.656H405.997V128.656H395.437V133.168H405.773V137.168H395.437V142H405.997V146Z" fill="currentColor"/>
<path d="M426.83 146H421.614L417.422 138.416H414.094V146H409.55V124.656H419.534C423.982 124.656 426.702 127.568 426.702 131.536C426.702 135.312 424.334 137.328 422.03 137.872L426.83 146ZM418.862 134.416C420.686 134.416 422.062 133.328 422.062 131.536C422.062 129.744 420.686 128.656 418.862 128.656H414.094V134.416H418.862Z" fill="currentColor"/>
<path d="M441.48 146H435.784L427.528 124.656H432.712L438.632 141.072L444.52 124.656H449.704L441.48 146Z" fill="currentColor"/>
<path d="M466.779 146H451.675V124.656H466.779V128.656H456.219V133.168H466.555V137.168H456.219V142H466.779V146Z" fill="currentColor"/>
<path d="M487.611 146H482.395L478.203 138.416H474.875V146H470.331V124.656H480.315C484.763 124.656 487.483 127.568 487.483 131.536C487.483 135.312 485.115 137.328 482.811 137.872L487.611 146ZM479.643 134.416C481.467 134.416 482.843 133.328 482.843 131.536C482.843 129.744 481.467 128.656 479.643 128.656H474.875V134.416H479.643Z" fill="currentColor"/>
<path d="M522.217 146H517.641V131.056L511.625 146H509.641L503.625 131.056V146H499.081V124.656H505.449L510.633 137.552L515.817 124.656H522.217V146Z" fill="currentColor"/>
<path d="M546.36 146H541.176L539.864 142.384H530.712L529.368 146H524.184L532.44 124.656H538.136L546.36 146ZM538.616 138.384L535.288 129.2L531.96 138.384H538.616Z" fill="currentColor"/>
<path d="M567.435 146H563.051L552.875 132.08V146H548.331V124.656H553.003L562.891 138.064V124.656H567.435V146Z" fill="currentColor"/>
<path d="M591.547 146H586.363L585.051 142.384H575.899L574.555 146H569.371L577.627 124.656H583.323L591.547 146ZM583.803 138.384L580.475 129.2L577.147 138.384H583.803Z" fill="currentColor"/>
<path d="M602.761 146.416C596.521 146.416 591.401 142.064 591.401 135.344C591.401 128.592 596.521 124.304 602.761 124.304C607.209 124.304 609.993 126.544 611.593 129.072L607.817 131.12C606.857 129.616 605.033 128.336 602.761 128.336C598.889 128.336 596.073 131.312 596.073 135.344C596.073 139.376 598.889 142.352 602.761 142.352C604.649 142.352 606.441 141.52 607.305 140.72V138.16H601.673V134.192H611.849V142.384C609.673 144.816 606.633 146.416 602.761 146.416Z" fill="currentColor"/>
<path d="M630.56 146H615.456V124.656H630.56V128.656H620V133.168H630.336V137.168H620V142H630.56V146Z" fill="currentColor"/>
<path d="M657.248 146H652.672V131.056L646.656 146H644.672L638.656 131.056V146H634.112V124.656H640.48L645.664 137.552L650.848 124.656H657.248V146Z" fill="currentColor"/>
<path d="M676.591 146H661.487V124.656H676.591V128.656H666.031V133.168H676.367V137.168H666.031V142H676.591V146Z" fill="currentColor"/>
<path d="M699.247 146H694.863L684.687 132.08V146H680.143V124.656H684.815L694.703 138.064V124.656H699.247V146Z" fill="currentColor"/>
<path d="M712.96 146H708.384V128.656H702.144V124.656H719.168V128.656H712.96V146Z" fill="currentColor"/>
<path fill-rule="evenodd" clip-rule="evenodd" d="M77.697 0.676951C79.2795 -0.228607 81.2251 -0.225443 82.8047 0.685256L134.833 30.6826C137.282 32.0945 138.121 35.2205 136.706 37.6649C135.292 40.1092 132.16 40.9462 129.711 39.5343L80.234 11.008L15.4061 48.1043L79.2384 85.738L152.187 43.7822C153.771 42.8709 155.722 42.8722 157.305 43.7855C158.888 44.6988 159.863 46.3855 159.863 48.2108V135.962C159.863 137.797 158.878 139.491 157.281 140.401L81.9172 183.328C80.3305 184.232 78.3815 184.223 76.8028 183.306L2.64916 140.206C1.07411 139.291 0.105286 137.609 0.105286 135.789V71.4846C0.105286 68.6618 2.39779 66.3735 5.22574 66.3735C8.05369 66.3735 10.3462 68.6618 10.3462 71.4846V132.851L79.4052 172.989L149.622 132.994V123.965L90.8989 157.3C88.4407 158.695 85.3146 157.837 83.9166 155.383C82.5187 152.93 83.3782 149.809 85.8364 148.414L149.622 112.205V101.898L90.8989 135.233C88.4407 136.628 85.3146 135.77 83.9166 133.316C82.5187 130.863 83.3782 127.742 85.8364 126.347L149.622 90.1383V80.8652L90.8989 114.2C88.4407 115.595 85.3146 114.737 83.9166 112.284C82.5187 109.83 83.3782 106.71 85.8364 105.314L149.622 69.1056V57.0546L81.7629 96.0838C80.1635 97.0037 78.1918 96.993 76.6024 96.056L2.62167 52.4392C1.05194 51.5137 0.0935628 49.8249 0.105394 48.0052C0.117225 46.1855 1.09748 44.5092 2.67911 43.6042L77.697 0.676951Z" fill="#3AB1F4"/>
</svg>

<svg xmlns="http://www.w3.org/2000/svg" viewBox="0 0 720 184"><path fill="currentColor" d="M223.381 107.307c-9.152 0-17.976-3.05-23.533-8.17l5.992-9.697c3.814 3.595 11.658 7.19 18.195 7.19 5.992 0 8.824-2.396 8.824-5.665 0-8.716-31.267-1.634-31.267-22.334 0-8.825 7.735-16.56 21.571-16.56 8.934 0 16.015 3.05 21.245 7.19l-5.556 9.479c-3.16-3.377-9.152-6.101-15.58-6.101-5.012 0-8.28 2.288-8.28 5.23 0 7.844 31.159 1.307 31.159 22.552 0 9.587-8.171 16.886-22.77 16.886m57.694 0c-16.015 0-28.108-10.785-28.108-27.672 0-15.253 11.222-27.564 27.237-27.564 15.688 0 26.365 11.766 26.365 28.98v3.05h-39.112c.872 6.646 6.21 12.203 15.144 12.203 4.467 0 10.677-1.961 14.054-5.23l6.101 8.934c-5.23 4.794-13.51 7.299-21.681 7.299m12.094-32.575c-.327-5.011-3.814-11.657-12.965-11.657-8.607 0-12.311 6.428-12.965 11.657zM330.4 106h-13.837V53.378H330.4v7.19c3.704-4.684 10.241-8.497 16.778-8.497v13.51c-.981-.218-2.288-.327-3.814-.327-4.575 0-10.676 2.614-12.964 5.992zm53.967 0h-14.926l-21.136-52.622h14.817l13.728 36.607 13.727-36.607h14.926zm52.044 1.307c-16.016 0-28.109-10.785-28.109-27.672 0-15.253 11.222-27.564 27.237-27.564 15.688 0 26.365 11.766 26.365 28.98v3.05h-39.112c.872 6.646 6.21 12.203 15.144 12.203 4.467 0 10.677-1.961 14.054-5.23l6.101 8.934c-5.229 4.794-13.509 7.299-21.68 7.299m12.093-32.575c-.327-5.011-3.813-11.657-12.965-11.657-8.607 0-12.311 6.428-12.965 11.657zM485.735 106h-13.837V53.378h13.837v7.19c3.704-4.684 10.241-8.497 16.778-8.497v13.51c-.981-.218-2.288-.327-3.814-.327-4.575 0-10.676 2.614-12.964 5.992z"/><path fill="#3AB1F4" d="M556.589 106h-13.836v-5.447c-3.596 4.249-9.806 6.754-16.669 6.754-8.389 0-18.304-5.665-18.304-17.431 0-12.311 9.915-16.996 18.304-16.996 6.972 0 13.182 2.288 16.669 6.428v-7.082c0-5.338-4.576-8.824-11.549-8.824-5.665 0-10.895 2.07-15.362 6.21l-5.229-9.26c6.428-5.666 14.708-8.281 22.988-8.281 11.984 0 22.988 4.794 22.988 19.937zm-24.949-8.062c4.467 0 8.825-1.525 11.113-4.576v-6.537c-2.288-3.05-6.646-4.576-11.113-4.576-5.448 0-9.914 2.833-9.914 7.954 0 4.902 4.466 7.735 9.914 7.735M619.666 106H605.83v-6.646c-3.596 4.031-9.915 7.953-18.521 7.953-11.549 0-16.996-6.319-16.996-16.56V53.378h13.836V85.3c0 7.3 3.813 9.696 9.696 9.696 5.339 0 9.588-2.941 11.985-5.992V53.378h13.836zm31.388 1.307c-9.696 0-14.926-5.011-14.926-14.38V65.471h-8.716V53.378h8.716v-14.38h13.945v14.38h10.677v12.094h-10.677v23.75c0 3.269 1.743 5.774 4.794 5.774 2.07 0 4.031-.762 4.794-1.525l2.941 10.459c-2.07 1.852-5.774 3.377-11.548 3.377M719.679 106h-13.837V73.97c0-7.3-3.813-9.588-9.805-9.588-5.338 0-9.587 3.05-11.984 6.21V106h-13.836V33.332h13.836v26.91c3.377-4.03 9.914-8.171 18.521-8.171 11.548 0 17.105 6.319 17.105 16.56z"/><path fill="currentColor" d="M221.295 146h-4.832l-3.744-14.656L209.007 146h-4.832l-6.112-21.344h5.088l3.744 15.424 4.064-15.424h3.552l4.032 15.424 3.712-15.424h5.12zm23.327 0h-15.104v-21.344h15.104v4h-10.56v4.512h10.336v4h-10.336V142h10.56zm15.137 0h-11.584v-21.344h11.232c4.064 0 6.144 2.592 6.144 5.44 0 2.688-1.664 4.48-3.68 4.896 2.272.352 4.096 2.56 4.096 5.248 0 3.2-2.144 5.76-6.208 5.76m-1.344-12.8c1.536 0 2.496-.96 2.496-2.304s-.96-2.336-2.496-2.336h-5.696v4.64zm.16 8.864c1.728 0 2.752-.928 2.752-2.464 0-1.344-.96-2.496-2.752-2.496h-5.856v4.96zm18.402 4.32c-4.096 0-7.04-1.376-9.024-3.392l2.464-3.456a9.36 9.36 0 0 0 6.784 2.88c2.496 0 3.712-1.152 3.712-2.368 0-3.776-12.288-1.184-12.288-9.216 0-3.552 3.072-6.496 8.096-6.496 3.392 0 6.208 1.024 8.32 2.976l-2.528 3.328c-1.728-1.6-4.032-2.336-6.208-2.336-1.952 0-3.04.864-3.04 2.144 0 3.392 12.256 1.12 12.256 9.088 0 3.904-2.784 6.848-8.544 6.848m16.148-.384h-4.544v-21.344h4.544zm13.741 0h-4.576v-17.344h-6.24v-4h17.024v4h-6.208zm24.225 0h-15.104v-21.344h15.104v4h-10.56v4.512h10.336v4h-10.336V142h10.56zm30.044 0h-5.184c-.448-.416-.992-.96-1.6-1.6-1.6 1.216-3.552 1.984-5.824 1.984-3.904 0-7.04-2.048-7.04-6.176 0-3.232 2.144-4.928 4.576-6.144-.832-1.568-1.408-3.168-1.408-4.608 0-2.88 2.56-5.12 6.112-5.12 3.008 0 5.6 1.664 5.6 4.512 0 3.264-2.624 4.64-5.248 5.856.64.864 1.312 1.664 1.856 2.304.608.768 1.216 1.472 1.792 2.176a17 17 0 0 0 1.952-4.128l3.264 1.504c-.768 1.696-1.76 3.52-2.976 5.152a163 163 0 0 0 4.128 4.288m-12.032-2.816c1.088 0 2.144-.416 3.072-1.088-.96-1.056-1.856-2.08-2.368-2.72a54 54 0 0 1-2.144-2.816c-1.12.8-1.856 1.792-1.856 3.264 0 2.08 1.536 3.36 3.296 3.36m-.384-13.632c0 .864.384 1.856.928 2.88 1.792-.864 3.2-1.792 3.2-3.36 0-1.12-.832-1.792-1.888-1.792-1.248 0-2.24.96-2.24 2.272m30.571 16.832c-4.096 0-7.04-1.376-9.024-3.392l2.464-3.456a9.36 9.36 0 0 0 6.784 2.88c2.496 0 3.712-1.152 3.712-2.368 0-3.776-12.288-1.184-12.288-9.216 0-3.552 3.072-6.496 8.096-6.496 3.392 0 6.208 1.024 8.32 2.976l-2.528 3.328c-1.728-1.6-4.032-2.336-6.208-2.336-1.952 0-3.04.864-3.04 2.144 0 3.392 12.256 1.12 12.256 9.088 0 3.904-2.784 6.848-8.544 6.848m26.707-.384h-15.104v-21.344h15.104v4h-10.56v4.512h10.336v4h-10.336V142h10.56zm20.833 0h-5.216l-4.192-7.584h-3.328V146h-4.544v-21.344h9.984c4.448 0 7.168 2.912 7.168 6.88 0 3.776-2.368 5.792-4.672 6.336zm-7.968-11.584c1.824 0 3.2-1.088 3.2-2.88s-1.376-2.88-3.2-2.88h-4.768v5.76zM441.48 146h-5.696l-8.256-21.344h5.184l5.92 16.416 5.888-16.416h5.184zm25.299 0h-15.104v-21.344h15.104v4h-10.56v4.512h10.336v4h-10.336V142h10.56zm20.832 0h-5.216l-4.192-7.584h-3.328V146h-4.544v-21.344h9.984c4.448 0 7.168 2.912 7.168 6.88 0 3.776-2.368 5.792-4.672 6.336zm-7.968-11.584c1.824 0 3.2-1.088 3.2-2.88s-1.376-2.88-3.2-2.88h-4.768v5.76zM522.217 146h-4.576v-14.944L511.625 146h-1.984l-6.016-14.944V146h-4.544v-21.344h6.368l5.184 12.896 5.184-12.896h6.4zm24.143 0h-5.184l-1.312-3.616h-9.152L529.368 146h-5.184l8.256-21.344h5.696zm-7.744-7.616-3.328-9.184-3.328 9.184zM567.435 146h-4.384l-10.176-13.92V146h-4.544v-21.344h4.672l9.888 13.408v-13.408h4.544zm24.112 0h-5.184l-1.312-3.616h-9.152L574.555 146h-5.184l8.256-21.344h5.696zm-7.744-7.616-3.328-9.184-3.328 9.184zm18.958 8.032c-6.24 0-11.36-4.352-11.36-11.072 0-6.752 5.12-11.04 11.36-11.04 4.448 0 7.232 2.24 8.832 4.768l-3.776 2.048c-.96-1.504-2.784-2.784-5.056-2.784-3.872 0-6.688 2.976-6.688 7.008s2.816 7.008 6.688 7.008c1.888 0 3.68-.832 4.544-1.632v-2.56h-5.632v-3.968h10.176v8.192c-2.176 2.432-5.216 4.032-9.088 4.032M630.56 146h-15.104v-21.344h15.104v4H620v4.512h10.336v4H620V142h10.56zm26.688 0h-4.576v-14.944L646.656 146h-1.984l-6.016-14.944V146h-4.544v-21.344h6.368l5.184 12.896 5.184-12.896h6.4zm19.343 0h-15.104v-21.344h15.104v4h-10.56v4.512h10.336v4h-10.336V142h10.56zm22.656 0h-4.384l-10.176-13.92V146h-4.544v-21.344h4.672l9.888 13.408v-13.408h4.544zm13.713 0h-4.576v-17.344h-6.24v-4h17.024v4h-6.208z"/><path fill="#3AB1F4" fill-rule="evenodd" d="M77.697.677a5.13 5.13 0 0 1 5.108.008l52.028 29.998a5.105 5.105 0 0 1 1.873 6.982 5.125 5.125 0 0 1-6.995 1.87L80.234 11.007 15.406 48.104l63.832 37.634 72.949-41.956a5.13 5.13 0 0 1 5.118.004 5.11 5.11 0 0 1 2.558 4.425v87.751a5.11 5.11 0 0 1-2.582 4.439l-75.364 42.927a5.13 5.13 0 0 1-5.114-.022l-74.154-43.1a5.11 5.11 0 0 1-2.544-4.417V71.485a5.116 5.116 0 0 1 5.12-5.111 5.116 5.116 0 0 1 5.121 5.11v61.367l69.06 40.138 70.216-39.995v-9.029L90.899 157.3a5.126 5.126 0 0 1-6.982-1.917 5.106 5.106 0 0 1 1.92-6.969l63.785-36.209v-10.307l-58.723 33.335a5.126 5.126 0 0 1-6.982-1.917 5.106 5.106 0 0 1 1.92-6.969l63.785-36.209v-9.273L90.899 114.2a5.126 5.126 0 0 1-6.982-1.916 5.107 5.107 0 0 1 1.92-6.97l63.785-36.208V57.055l-67.86 39.029a5.13 5.13 0 0 1-5.16-.028L2.622 52.439a5.11 5.11 0 0 1-2.517-4.434 5.11 5.11 0 0 1 2.574-4.4z" clip-rule="evenodd"/></svg>
